X: 1996
T: You Are A Fine Young Man
B: australian traditional tunes wiki
M:6/8
L:1/8
R: Jig
Q: 3/8=100
K:D
V:1 
|:B|"D"A2f fed|ABA A2A|A2f fed|"A7"e3-e2f|"G"g2b bag|"D"f2a agf|"A7"efgB2c|"D"d3-d2:|
|:a|"D"f2a gfe|f2dA2d|fdf agf|"A7"e3-e2[ea]|"D"f2a gfe|f2dA3|Acd"A7"B2c|"D"d3-d2:|
|:d|"G"g2Gf2G|e2Gd2c|Bde dBG|"D"F3-F3|f2Fe2F|d2Fc2B|ABc DEF|"G"G3-G2:|
% abcbook-tune_id 6342d5be75bf6d85c081137c


% abcbook-boost 0
% abcbook-tablature 
% abcbook-transpose 
% abcbook-lastupdated 1665324493231
% abcbook-soundfonts 
% abcbook-repeats 1
% NFF Book 2009

